X: 12701
T: Father Dollard's Favourite
R: jig
M: 6/8
K: Dmajor
|:A|DFA dcd|AFA BGE|DF/G/A d2 d|AFA G2 E|
DF/G/A d3|AF/G/A BGE|afd [Bb]ge|AF[Dd] E2:|
|:d|f^ef gfg|afd cBA|f^ef g2 g|dFA B2 g|
f^ef gfg|afd [bB]ge|ff/g/a Bcd|AF[Dd] E2:|

